dist/img/advantages/08.svg

<?xml version="1.0" encoding="UTF-8"?> <svg xmlns="http://www.w3.org/2000/svg" width="300" height="300" viewBox="0 0 300 300" fill="none"> <g clip-path="url(#clip0)"> <path d="M65.0053 120.793V176.932L48.7128 193.291C41.204 200.824 38.9675 212.135 43.0431 221.957C47.1207 231.78 56.7075 238.183 67.3423 238.185H67.3965L86.9354 238.141V266.65C86.9354 275.129 93.8078 282.001 102.286 282.001C110.763 282.001 117.637 275.129 117.637 266.65V236.629C122.986 234.109 126.401 228.727 126.401 222.812C126.401 216.899 122.986 211.517 117.637 208.997V161.274L141.904 148.473C145.61 146.517 148.166 142.916 148.783 138.772C149.401 134.626 148.008 130.436 145.03 127.486L121.466 104.143C117.368 100.061 111.815 97.7764 106.031 97.7925H82.8558C80.5329 97.7965 78.3043 96.8749 76.664 95.2326L65.0053 83.604V80.0966C64.6781 73.7001 65.1198 67.2895 66.3204 60.9994C67.4868 56.0142 69.2114 51.1777 71.4621 46.5781C72.0624 45.4236 72.7229 44.2993 73.4397 43.2111C76.3026 39.5611 77.9028 35.078 77.9971 30.4382C77.3366 23.9111 71.8174 18.9561 65.2563 19.0003H65.1679C59.5223 19.0304 53.961 22.8812 49.5099 29.8118C46.3056 35.1563 43.8964 40.9424 42.3605 46.9816C39.4353 58.9375 38.2005 71.2447 38.6904 83.5438C38.6703 90.5206 41.4409 97.2162 46.3839 102.139L65.0053 120.793ZM102.286 273.229C98.6524 273.229 95.7071 270.284 95.7071 266.65V238.141H108.864V266.65C108.864 270.284 105.918 273.229 102.286 273.229ZM115.72 227.454C114.822 228.343 113.686 228.951 112.447 229.206C111.99 229.305 111.526 229.359 111.058 229.369H91.3202L67.3864 229.413H67.3423C60.2531 229.413 53.8586 225.145 51.1401 218.596C48.4217 212.049 49.9114 204.506 54.9186 199.484L72.484 181.861C72.8835 181.455 73.2007 180.975 73.4176 180.449C73.6103 179.966 73.7147 179.45 73.7248 178.928C73.7248 178.875 73.7549 178.831 73.7549 178.779V176.739H108.843V207.441H95.7071V193.172C95.7071 190.512 94.1029 188.113 91.6435 187.095C89.1861 186.077 86.3552 186.641 84.474 188.524L68.0189 204.98C66.1357 206.861 65.5735 209.69 66.5894 212.149C67.6073 214.608 70.0065 216.211 72.6667 216.213H111.058C111.5 216.221 111.939 216.267 112.373 216.347C114.746 216.833 116.661 218.586 117.356 220.907C118.051 223.228 117.414 225.743 115.698 227.454H115.72ZM112.325 144.257L116.838 151.775L111.202 154.749C111.102 154.801 110.956 154.893 110.811 154.99L109.584 155.62C107.43 156.73 104.784 155.897 103.654 153.753C103.324 153.133 103.156 152.442 103.164 151.739C103.176 151.217 103.284 150.701 103.483 150.218C103.814 149.188 104.549 148.334 105.519 147.854L112.325 144.257ZM86.9354 207.441H77.961L86.9354 198.467V207.441ZM96.733 106.564L91.3202 115.587L85.9095 106.564H96.733ZM70.4703 101.442C71.6267 102.561 72.9317 103.516 74.3471 104.279C74.3732 104.328 74.3732 104.386 74.4054 104.438L85.6806 123.232C86.8692 125.212 89.0114 126.424 91.3202 126.424C93.6311 126.424 95.7713 125.212 96.9619 123.232L106.912 106.648C110.064 106.833 113.042 108.158 115.29 110.377L138.855 133.714C139.856 134.696 140.328 136.097 140.123 137.485C139.919 138.874 139.063 140.081 137.821 140.731L124.61 147.678L120.089 140.153L124.68 137.722C125.911 137.073 126.76 135.877 126.969 134.499C127.178 133.124 126.72 131.729 125.736 130.745L116.356 121.363C115.947 120.953 115.461 120.63 114.925 120.411C113.574 119.853 112.032 120.004 110.815 120.817C109.598 121.63 108.866 122.995 108.864 124.459V136.162L101.469 140.073C97.1747 142.396 94.4663 146.857 94.39 151.739C94.386 153.88 94.908 155.99 95.9138 157.879C98.4295 162.597 103.543 165.333 108.864 164.809V167.968H73.777V118.978C73.777 117.815 73.3172 116.703 72.496 115.88L52.5897 95.9414C49.2931 92.6588 47.448 88.1957 47.462 83.5438C46.9963 72.0638 48.1186 60.5757 50.7988 49.4029C51.1381 48.2103 51.5055 46.9736 51.9131 45.7147L60.5181 50.0172C59.4259 52.9565 58.5144 55.958 57.7917 59.0077C56.4224 65.9664 55.9004 73.0616 56.2337 80.1448V83.859C56.2277 86.0273 57.089 88.1073 58.6289 89.6352L70.4703 101.442ZM65.2081 27.7599H65.2342C67.2479 27.6936 68.9826 29.1673 69.2416 31.167C68.824 33.8633 67.7117 36.405 66.0152 38.5392C65.2723 39.7198 64.5937 40.8501 64.0055 41.9523L55.2338 37.5655C55.7558 36.5476 56.2899 35.5357 56.9042 34.57C59.6106 30.3257 62.7206 27.786 65.2242 27.7719L65.2081 27.7599Z" fill="#ffffff"></path> <path d="M69.3906 69.2827C69.3906 82.6037 80.19 93.4051 93.5132 93.4051C106.834 93.4051 117.636 82.6037 117.636 69.2827C117.636 55.9596 106.834 45.1602 93.5132 45.1602C80.1961 45.1742 69.4047 55.9656 69.3906 69.2827ZM93.5132 53.9318C101.99 53.9318 108.862 60.8041 108.862 69.2827C108.862 77.7612 101.99 84.6335 93.5132 84.6335C85.0346 84.6335 78.1623 77.7612 78.1623 69.2827C78.1623 60.8041 85.0346 53.9318 93.5132 53.9318Z" fill="#ffffff"></path> <path d="M211.933 97.784C214.862 97.8 217.768 97.2579 220.494 96.1878C231.9 91.8572 238.278 79.6946 235.351 67.8492C232.424 56.0057 221.116 48.2119 209.006 49.6915C196.896 51.1732 187.797 61.4627 187.811 73.6615C187.801 76.418 188.27 79.1545 189.202 81.7505C192.629 91.3613 201.728 97.7799 211.933 97.784ZM211.933 58.3106C219.328 58.3447 225.646 63.645 226.967 70.9209C228.286 78.1948 224.234 85.3784 217.324 88.0085C215.607 88.6851 213.778 89.0264 211.933 89.0123C205.43 89.0143 199.632 84.9186 197.46 78.7891C196.871 77.1448 196.574 75.4102 196.582 73.6615C196.582 69.5918 198.201 65.6869 201.08 62.8078C203.957 59.9288 207.862 58.3106 211.933 58.3106Z" fill="#ffffff"></path> <path d="M149.285 191.885C147.36 193.638 146.312 196.153 146.424 198.753C146.537 201.355 147.799 203.77 149.869 205.35L153.899 208.42C154.078 208.581 154.268 208.727 154.469 208.858C155.346 209.42 156.224 209.928 157.101 210.446V266.652C157.101 275.13 163.974 282.002 172.452 282.002C180.929 282.002 187.803 275.13 187.803 266.652V220.081C190.989 220.418 194.189 220.595 197.394 220.609C207.414 220.489 217.384 219.163 227.088 216.662L256.288 267.296C259.397 272.671 265.439 275.64 271.594 274.825C277.748 274.008 282.805 269.563 284.405 263.564C285.471 259.641 284.917 255.453 282.871 251.941L256.599 206.415C257.476 206.017 258.353 205.617 259.086 205.262C261.578 204.066 263.359 201.763 263.893 199.05C264.427 196.34 263.652 193.535 261.801 191.481L243.535 171.21C246.422 171.723 249.399 171.246 251.981 169.854C255.788 167.819 258.362 164.054 258.875 159.768L261.718 135.513C262.604 127.968 258.532 120.708 251.63 117.532L220.838 103.325C217.001 101.556 212.656 101.231 208.601 102.408L193.898 106.68C192.967 106.953 191.961 106.807 191.144 106.281C190.29 105.728 189.726 104.825 189.606 103.817L177.891 38.4926C176.873 32.0579 171.344 27.3057 164.829 27.2695C164.329 27.2695 163.773 27.3177 162.877 27.4101C155.694 28.5705 150.785 35.2983 151.869 42.4939L164.365 114.803C164.977 118.349 165.768 121.862 166.736 125.33L173.337 148.864C176.273 159.191 173.084 170.29 165.114 177.486L149.285 191.885ZM179.039 266.652C179.039 270.285 176.094 273.231 172.46 273.231C168.826 273.231 165.881 270.285 165.881 266.652V214.785C167.232 215.333 168.591 215.837 169.956 216.284H169.983L170.123 216.337H170.161C171.249 216.736 172.356 217.069 173.448 217.389C175.277 217.915 177.144 218.37 179.039 218.766V266.652ZM275.941 261.323C275.254 263.893 273.088 265.796 270.452 266.146C267.816 266.497 265.226 265.224 263.893 262.923L235.823 214.241C240.051 212.95 244.257 211.476 248.441 209.82L275.296 256.362C276.168 257.862 276.399 259.649 275.941 261.323ZM160.526 41.1106C160.149 38.7596 161.719 36.5351 164.062 36.1034C165.256 35.9147 166.477 36.2158 167.451 36.9346C168.425 37.6534 169.069 38.7335 169.242 39.9321L180.969 105.251C181.491 108.714 183.482 111.784 186.432 113.673C189.383 115.56 193.005 116.084 196.368 115.106L211.07 110.838C213.102 110.234 215.284 110.388 217.21 111.278L247.99 125.478C251.435 127.068 253.467 130.696 253.025 134.465L250.186 158.71C250.013 160.153 249.148 161.422 247.867 162.109C246.556 162.809 244.98 162.797 243.679 162.079C242.049 161.103 241.18 159.23 241.485 157.354L242.191 151.434L243.569 139.767C244.023 135.994 241.987 132.361 238.533 130.776L223.086 123.671C221.245 122.82 219.109 122.88 217.32 123.838C210.795 120.326 202.961 120.258 196.376 123.653C189.652 120.784 182.087 120.581 175.219 123.087L175.185 122.965C174.289 119.788 173.558 116.568 172.99 113.316L160.526 41.1106ZM230.051 156.202L223.723 133.609L234.837 138.729L233.454 150.39L232.753 156.31C232.753 156.395 232.779 156.473 232.775 156.557H232.723C232.631 157.423 232.617 158.294 232.679 159.161L230.051 156.202ZM181.806 146.495L177.658 131.72C182.621 129.53 188.283 129.564 193.22 131.816C195.569 132.712 198.193 132.533 200.399 131.329C204.818 129.178 210.034 129.459 214.196 132.075L221.894 159.549C221.894 159.587 221.934 159.617 221.946 159.661C222.008 159.812 222.078 159.958 222.157 160.101C222.303 160.45 222.496 160.78 222.727 161.079C222.775 161.135 222.789 161.209 222.837 161.267L255.302 197.354C253.503 198.231 251.262 199.235 248.634 200.341C241.971 203.192 235.114 205.565 228.114 207.442C211.167 212.701 193.107 213.239 175.877 208.998C174.93 208.723 173.982 208.45 172.874 208.035C168.139 206.469 163.622 204.316 159.426 201.626L155.188 198.398L171.031 183.995C181.483 174.566 185.657 160.013 181.794 146.479L181.806 146.495Z" fill="#ffffff"></path> </g> <defs> <clipPath id="clip0"> <rect width="263" height="263" fill="white" transform="translate(30 19)"></rect> </clipPath> </defs> </svg>

<svg xmlns="http://www.w3.org/2000/svg" width="300" height="300" fill="none"><g clip-path="url(#clip0)" fill="#fff"><path d="M65.005 120.793v56.139l-16.292 16.359a26.315 26.315 0 0018.63 44.894h.054l19.538-.044v28.509c0 8.479 6.873 15.351 15.351 15.351 8.477 0 15.351-6.872 15.351-15.351v-30.021a15.274 15.274 0 000-27.632v-47.723l24.267-12.801a13.164 13.164 0 006.879-9.701 13.153 13.153 0 00-3.753-11.286l-23.564-23.343a21.785 21.785 0 00-15.435-6.35H82.856a8.73 8.73 0 01-6.192-2.56L65.005 83.604v-3.507a80.042 80.042 0 011.315-19.098 68.112 68.112 0 015.142-14.42c.6-1.155 1.26-2.28 1.978-3.368a21.402 21.402 0 004.557-12.773A12.72 12.72 0 0065.257 19h-.09c-5.645.03-11.206 3.881-15.657 10.812a64.14 64.14 0 00-7.15 17.17 131.777 131.777 0 00-3.67 36.562 26.139 26.139 0 007.694 18.595l18.621 18.654zm37.281 152.436a6.579 6.579 0 01-6.579-6.579v-28.509h13.157v28.509a6.579 6.579 0 01-6.578 6.579zm13.434-45.775a6.517 6.517 0 01-3.273 1.752 7.287 7.287 0 01-1.389.163H91.32l-23.934.044h-.044a17.544 17.544 0 01-12.423-29.929l17.565-17.623c.4-.406.717-.886.934-1.412.192-.483.297-.999.307-1.521 0-.053.03-.097.03-.149v-2.04h35.088v30.702H95.707v-14.269a6.579 6.579 0 00-11.233-4.648L68.019 204.98a6.58 6.58 0 004.648 11.233h38.391c.442.008.881.054 1.315.134a6.582 6.582 0 013.325 11.107h.022zm-3.395-83.197l4.513 7.518-5.636 2.974c-.1.052-.246.144-.391.241l-1.227.63a4.416 4.416 0 01-5.93-1.867 4.18 4.18 0 01-.49-2.014 4.25 4.25 0 01.319-1.521 4.006 4.006 0 012.036-2.364l6.806-3.597zm-25.39 63.184h-8.974l8.974-8.974v8.974zm9.798-100.877l-5.413 9.023-5.41-9.023h10.823zm-26.263-5.122a17.556 17.556 0 003.877 2.837c.026.049.026.107.058.159l11.276 18.794a6.58 6.58 0 0011.28 0l9.951-16.584c3.152.185 6.13 1.51 8.378 3.729l23.565 23.337a4.385 4.385 0 01-1.034 7.017l-13.211 6.947-4.521-7.525 4.591-2.431a4.385 4.385 0 001.056-6.977l-9.38-9.382a4.336 4.336 0 00-1.431-.952 4.386 4.386 0 00-6.061 4.048v11.703l-7.395 3.911a13.506 13.506 0 00-7.079 11.666 13.013 13.013 0 001.524 6.14 13.21 13.21 0 0012.95 6.93v3.159H73.777v-48.99c0-1.163-.46-2.275-1.281-3.098L52.59 95.941a17.419 17.419 0 01-5.128-12.397 124.687 124.687 0 013.337-34.141c.34-1.193.706-2.43 1.114-3.688l8.605 4.302a76.364 76.364 0 00-2.726 8.99 88.03 88.03 0 00-1.558 21.138v3.714a8.103 8.103 0 002.395 5.776l11.841 11.807zM65.208 27.76h.026a3.91 3.91 0 014.008 3.407 15.714 15.714 0 01-3.227 7.372 55.888 55.888 0 00-2.01 3.413l-8.771-4.386c.522-1.018 1.056-2.03 1.67-2.996 2.707-4.244 5.817-6.784 8.32-6.798l-.016-.012z"/><path d="M69.39 69.283c0 13.32 10.8 24.122 24.123 24.122 13.321 0 24.123-10.801 24.123-24.122 0-13.323-10.802-24.123-24.123-24.123-13.317.014-24.108 10.806-24.122 24.123zm24.123-15.351c8.477 0 15.349 6.872 15.349 15.35 0 8.48-6.872 15.352-15.349 15.352-8.478 0-15.35-6.873-15.35-15.351 0-8.479 6.872-15.351 15.35-15.351zm118.42 43.852a23.086 23.086 0 008.561-1.596c11.406-4.33 17.784-16.493 14.857-28.339-2.927-11.843-14.235-19.637-26.345-18.158-12.11 1.482-21.209 11.772-21.195 23.97a23.679 23.679 0 001.391 8.09 24.142 24.142 0 0022.731 16.033zm0-39.473a15.351 15.351 0 015.391 29.697 14.4 14.4 0 01-5.391 1.004A15.35 15.35 0 01197.46 78.79a14.998 14.998 0 01-.878-5.127 15.353 15.353 0 0115.351-15.351z"/><path d="M149.285 191.885a8.778 8.778 0 00-2.861 6.868 8.777 8.777 0 003.445 6.597l4.03 3.07c.179.161.369.307.57.438.877.562 1.755 1.07 2.632 1.588v56.206c0 8.478 6.873 15.35 15.351 15.35 8.477 0 15.351-6.872 15.351-15.35v-46.571c3.186.337 6.386.514 9.591.528a124.98 124.98 0 0029.694-3.947l29.2 50.634a15.35 15.35 0 0028.117-3.732 15.184 15.184 0 00-1.534-11.623l-26.272-45.526c.877-.398 1.754-.798 2.487-1.153a8.774 8.774 0 002.715-13.781l-18.266-20.271c2.887.513 5.864.036 8.446-1.356a13.218 13.218 0 006.894-10.086l2.843-24.255a17.542 17.542 0 00-10.088-17.981l-30.792-14.207a17.546 17.546 0 00-12.237-.917l-14.703 4.272a3.35 3.35 0 01-2.754-.399 3.418 3.418 0 01-1.538-2.464l-11.715-65.324a13.3 13.3 0 00-13.062-11.224c-.5 0-1.056.049-1.952.141-7.183 1.16-12.092 7.888-11.008 15.084l12.496 72.309a106.57 106.57 0 002.371 10.527l6.601 23.534a28.18 28.18 0 01-8.223 28.622l-15.829 14.399zm29.754 74.767a6.579 6.579 0 11-13.158 0v-51.867a63.097 63.097 0 004.075 1.499h.027l.14.053h.038c1.088.399 2.195.732 3.287 1.052 1.829.526 3.696.981 5.591 1.377v47.886zm96.902-5.329a6.578 6.578 0 01-12.048 1.6l-28.07-48.682a166.035 166.035 0 0012.618-4.421l26.855 46.542a6.471 6.471 0 01.645 4.961zM160.526 41.111a4.387 4.387 0 013.536-5.008 4.528 4.528 0 015.18 3.829l11.727 65.319a12.148 12.148 0 0015.399 9.855l14.702-4.268a8.714 8.714 0 016.14.44l30.78 14.2a8.774 8.774 0 015.035 8.987l-2.839 24.245a4.459 4.459 0 01-2.319 3.399 4.389 4.389 0 01-4.188-.03 4.64 4.64 0 01-2.194-4.725l.706-5.92 1.378-11.667a8.744 8.744 0 00-5.036-8.991l-15.447-7.105a6.468 6.468 0 00-5.766.167 22.465 22.465 0 00-20.944-.185 28.777 28.777 0 00-21.157-.566l-.034-.122a97.073 97.073 0 01-2.195-9.649l-12.464-72.205zm69.525 115.091l-6.328-22.593 11.114 5.12-1.383 11.661-.701 5.92c0 .085.026.163.022.247h-.052a14.71 14.71 0 00-.044 2.604l-2.628-2.959zm-48.245-9.707l-4.148-14.775a19.006 19.006 0 0115.562.096 8.594 8.594 0 007.179-.487 14.225 14.225 0 0113.797.746l7.698 27.474c0 .038.04.068.052.112.062.151.132.297.211.44.146.349.339.679.57.978.048.056.062.13.11.188l32.465 36.087c-1.799.877-4.04 1.881-6.668 2.987a152.684 152.684 0 01-20.52 7.101 97.569 97.569 0 01-52.237 1.556c-.947-.275-1.895-.548-3.003-.963a59.577 59.577 0 01-13.448-6.409l-4.238-3.228 15.843-14.403a36.889 36.889 0 0010.763-37.516l.012.016z"/></g><defs><clipPath id="clip0"><path fill="#fff" transform="translate(30 19)" d="M0 0h263v263H0z"/></clipPath></defs></svg>
